X:1
T:James Gibb editions
T:O Jesu, nomen dulce - Schütz
T:#
%%score 1 2
L:1/8
Q:1/4=108
M:4/4
K:F
V:1 treble-8 nm="Tenor"
V:2 bass nm="Continuo"
V:1
"^O Jesu, nomen dulce, SWV 308""^Heinrich Schütz\n(1585-1672)" z4 d4 | _e8 | d4 c4- | %3
w: O|Je-|su, no\-|
 c2 d2 (B3 c) | A8 | AdcB c3 c | cABc d4- | d4 ^c4 | z ddA B3 B | c2 (B/c/d/c/) A>A A2 | %10
w: * men dul\- *|ce,|no- men ad- mi- ra- bi-|le, no- men con- for\-|* tans,|quid e- nim ca- ni-|tur su\- * * * a- vi- us,|
 z2 dA B4- | B2 cd A>A A2 | z ddA B4- | B3 A A>A A2 | z2 (B/A/B/A/) G2 G2 | z2 (c/B/c/B/) A2 A2 | %16
w: quid au- di\-|* tur ju- cun- di- us,|quid co- gi- ta\-|* tur dul- ci- us,|quam * * * Je- sus,|quam * * * Je- sus,|
 z2 (d/c/d/c/) B2 B2 | z2 _e4 A2 | A6 A2 | G8 | z2 d2 c3 B | c4 c4 | z2 c2 B3 A | B4 B4 | %24
w: quam * * * Je- sus,|De- i|fi- li-|us.|O no- men|Je- su,|o no- men|Je- su.|
 z2 A3 A G2- | GG (F/E/F/D/) E4 | D4 z2 _e2- | e_e d3 c B2 | c8 | B2 z f d2 d2 | _e2 z e c2 c2 | %31
w: ve- rus a\-|* ni- mae * * * ci-|bus, ve\-|* rus a- ni- mae|ci-|bus, in o- re|mel, in au- re|
 d2 dF G2 BG | A2 GG G3 (^F- | G4) z2 (fe) | (dc) (dB) _e2 (ed) | (cB) (cA) d2 d=F | %36
w: me- los, in cor- de lae-|ti- ti- a me- a,|* in *|o\- * re * mel, in *|au\- * re * me- los, in|
 (GA) (BG) (A/B/c/B/ c/B/A/G/) | F2 GG G3 (^F | G8) | B2 B2 B2 BB | B2 BB =B2 BB | (c8 | ^c8) | %43
w: cor\- * de * lae\- * * * * * * *|ti- ti- a me- a.||Tu- um i- ta- que|no- men, dul- cis- si- me|Je\-||
 d4 z2 dA | B2 B2 z GBc | d2 cB (AB/c/ FG/A/ | Bc/d/ GA/B/ FG/A/ D/E/F/E/ | E4) D2 z f | %48
w: su, in ae-|ter- num in o- re|me- o por- ta\- * * * * *||* bo, por-|
 (_eddc dccB | cd_ed c4) | B4 z4 | G2 G2 G2 GG | G2 GG G2 GG | A8- | A8 | A2 dA B2 B2 | %56
w: ta\- * * * * * * *||bo,|tu- um i- ta- que|no- men, dul- cis- si- me|Je\-||su, in ae- ter- num|
 z _EGA B2 AG | (FG/A/ DE/F/ G/A/G/A/ B/c/B/c/ | de/f/ Bc/d/ F/G/F/G/ A/B/A/B/ | %59
w: in o- re me- o por-|ta\- * * * * * * * * * * * * *||
 cd/_e/ AB/c/ !courtesy!=E/F/E/F/ G/A/G/A/ | Bc/d/ GA/B/ D/E/D/E/ F/G/F/G/ | AB/c/ F/G/A/G/ G4) | %62
w: |||
 F4 z2[Q:1/4=107] d2 | %63
w: bo, por-|
[Q:1/4=105] (c[Q:1/4=104]B[Q:1/4=103]B[Q:1/4=102]A[Q:1/4=101] B[Q:1/4=101]A[Q:1/4=100]A[Q:1/4=99]G | %64
w: ta\- * * * * * * *|
[Q:1/4=98] A[Q:1/4=97]B[Q:1/4=96]c[Q:1/4=95]B[Q:1/4=93] A4) |[Q:1/4=92] !fermata!G8 |] %66
w: |bo.|
V:2
 G,8 | C,8 | G,4 E,4 | ^F,4 G,4 | D,4 D,G,F,E, | F,8 | F,4- F,D,B,,A,, | G,,4 A,,4 | ^F,4 G,4 | %9
w: ||* 6||||* 6 * * *|||
 C,2 G,,2 D,4 | ^F,4 G,4 | _E,2 =B,,2 D,4 | ^F,4 G,2 G,D, | _E,2 C,2 D,4 | B,,4 G,2 _E,2 | %15
w: ||||||
 C,4 A,2 F,2 | D,4 B,2 G,2 | _E,2 D,2 C,4 | x4- x4 | G,,8 | G,,8 | F,,2 F,2 _E,2 D,2 | %22
w: |||4||||
 x2- x2 _E,4- | E,2 _E,2 D,2 C,2 | D,4 x2- x2 | x2 x4 x2 | D,4 C,4 | x2- x2 G,4 | _E,4 F,4 | %29
w: 5 *|* * 6 *|* 7|||9 *||
 B,,4 B,4 | _E,4 F,4 | B,,4 _E,4 | x2- x2 x2- x2 | G,,4 D,4 | G,4 C,4 | F,4 B,,4 | _E,4 C,4 | %37
w: |||6 4|||||
 D,2 _E,2 x2- x2 | G,,8 | G,4 F,4 | _E,4 D,4 | C,4 B,,4 | A,,4 G,,4 | ^F,,4 ^F,4 | G,2 G,D, _E,4 | %45
w: * * 4|||* 6|||||
 B,,2 D,_E, F,2 F,,2 | G,,4 D,4 | A,,4 D,4 | C,4 B,,4 | F,2 _E,2!>(! x2-!>)! x2 | B,,8 | _E,4 D,4 | %52
w: ||||* * 4|||
 C,4 B,,4 | A,,4 G,,4 | F,,2 E,,D,, A,,4 | D,,4 G,,2 G,D, | _E,4- E,G,,B,,C, | D,4 G,,4 | %58
w: |||* * * 6|||
 B,,4 F,4 | F,,4 C,4 | G,,4 B,,4 | F,,4 C,4 |"^Kieme geistliche Konzerte. 2/3" F,,4 B,,4 | %63
w: |||||
 A,,4 G,,4 | D,2 C,2 x2- x2 | !fermata!G,,8 |] %66
w: |* * 4||

